src/components/00-materials/images-raw/Penalty.svg

<!-- <svg width="96" height="96" viewBox="0 0 96 96" fill="none" xmlns="http://www.w3.org/2000/svg"><path d="M16.871 65.5h.001a4.61 4.61 0 014.628 4.574h0a4.62 4.62 0 11-4.629-4.574zm-.003 8.24l.502.001v-.082a3.597 3.597 0 002.86-2.2 3.6 3.6 0 00.27-1.393v-.004a3.62 3.62 0 10-3.632 3.678zm60.708-8.24h.001a4.61 4.61 0 014.583 4.619v0a4.62 4.62 0 11-4.584-4.62zm.01 8.24l.494-.007v-.081a3.6 3.6 0 003.08-3.528v-.004a3.62 3.62 0 10-3.574 3.62zm3.591-7.23A5.11 5.11 0 0077.58 65l5.08 5.12a5.11 5.11 0 00-1.483-3.61zm-45.237-5.6h28.57a.5.5 0 110 1H35.94a.5.5 0 110-1z" stroke="currentColor"/><mask id="a"><path d="M79.09 44.94h.31a5 5 0 004.17-7.83.18.18 0 010-.22 5 5 0 000-5.6.17.17 0 010-.21 5 5 0 00.85-2.8 5.07 5.07 0 00-.74-2.63.09.09 0 010-.12 5 5 0 00.74-2.47A4.911 4.911 0 0083 19.5a5.428 5.428 0 00-3.88-1.64H67.76a13.65 13.65 0 00-8.48 3.56.22.22 0 01-.12 0h-8.62a2.12 2.12 0 00-2.12 2.12v4.09a55.557 55.557 0 00-8.9-.51c-7 0-12.86.79-24.21 2.67h-.06a.726.726 0 00-.21.06c-.067.03-.13.067-.19.11l-.15.11c-4.53 3.43-7.17 15.54-8.76 24.4 0 .26-.09.5-.13.71a4.79 4.79 0 00-3.7 4.66v9.39a3 3 0 003 2.89h2a10 10 0 0019.57 0h4.66a.712.712 0 00.14 0h36.31a10 10 0 0019.57 0h3a3.671 3.671 0 003.68-3.66c.04-16.46-9.91-21.85-14.95-23.52zM88 53.87c-.547.075-1.098.115-1.65.12-4.49 0-7.22-3.67-9.1-7.51A19 19 0 0188 53.87zm-49.52-7H26.09a3.422 3.422 0 01-3.43-3.41v-8.21c2.53-.31 10.1-1.19 15.85-1.59l-.03 13.21zm2-13.34c2.712.026 5.399.523 7.94 1.47v3.8a2.12 2.12 0 002.12 2.12h6.81a1.15 1.15 0 011.08.73l2.14 5.26H40.51l-.03-13.38zM71.06 54a6.841 6.841 0 01-4 3.42.14.14 0 01-.14-.08l-3.44-8.49-.81-2-2.2-5.43-.23-.58a3.15 3.15 0 00-2.94-2h-6.76a.12.12 0 01-.12-.12V23.57a.12.12 0 01.12-.12h8.62a2.11 2.11 0 001.56-.66 11.78 11.78 0 017-2.93h11.41a3.48 3.48 0 012.45 1 3 3 0 01.84 2.1 2.891 2.891 0 01-.42 1.51 2.11 2.11 0 000 2.22 2.93 2.93 0 01.45 1.58 3 3 0 01-.54 1.73 2.19 2.19 0 000 2.45 3 3 0 01.51 1.68 2.92 2.92 0 01-.51 1.68 2.2 2.2 0 000 2.46 3 3 0 01.51 1.68 3 3 0 01-3.07 3h-6.83a2 2 0 00-1.67.88 2.1 2.1 0 00-.24 1.93c1.25 3.4 1.39 6.24.45 8.24zM14.41 33.31V46H9.68c1.14-4.69 2.71-9.82 4.73-12.69zm2.46 44.84a8.08 8.08 0 118-8.08 8 8 0 01-8 8.08zm10-8v-.09a10 10 0 00-20 0v.09H5.08a1 1 0 01-1-.89v-9.37a2.81 2.81 0 012.82-2.81h9.26c10.48 0 13.75 7.81 14.11 13.09l-3.4-.02zm50.72 8a8.08 8.08 0 118-8.08 8 8 0 01-8.01 8.08h.01zm12.82-8h-2.84v-.09a10 10 0 00-20 0v.07h-35.3a17 17 0 00-3.59-9.62c-2.89-3.56-7.22-5.44-12.52-5.44H7.85v-.22c.28-1.54.73-4 1.35-6.86h6.17a1 1 0 001-1V31.66c10.73-1.77 16.43-2.51 23.11-2.51a49.59 49.59 0 018.9.54v3.17a24.599 24.599 0 00-8.89-1.27h-.08c-7.07.44-17.81 1.77-17.91 1.78a1 1 0 00-.88 1v9.12a5.43 5.43 0 005.43 5.41h35.33l3.74 9.24a2.1 2.1 0 002 1.33c.238-.001.475-.042.7-.12a8.74 8.74 0 005.09-4.46c1.2-2.6 1.06-5.91-.44-9.83l-.92.36 1-.46h1.72l.27.21C76.46 49.83 79.84 56 86.38 56a15.26 15.26 0 002.79-.27 26.1 26.1 0 012.9 12.78 1.67 1.67 0 01-1.67 1.65l.01-.01z"/></mask><path d="M79.09 44.94h.31a5 5 0 004.17-7.83.18.18 0 010-.22 5 5 0 000-5.6.17.17 0 010-.21 5 5 0 00.85-2.8 5.07 5.07 0 00-.74-2.63.09.09 0 010-.12 5 5 0 00.74-2.47A4.911 4.911 0 0083 19.5a5.428 5.428 0 00-3.88-1.64H67.76a13.65 13.65 0 00-8.48 3.56.22.22 0 01-.12 0h-8.62a2.12 2.12 0 00-2.12 2.12v4.09a55.557 55.557 0 00-8.9-.51c-7 0-12.86.79-24.21 2.67h-.06a.726.726 0 00-.21.06c-.067.03-.13.067-.19.11l-.15.11c-4.53 3.43-7.17 15.54-8.76 24.4 0 .26-.09.5-.13.71a4.79 4.79 0 00-3.7 4.66v9.39a3 3 0 003 2.89h2a10 10 0 0019.57 0h4.66a.712.712 0 00.14 0h36.31a10 10 0 0019.57 0h3a3.671 3.671 0 003.68-3.66c.04-16.46-9.91-21.85-14.95-23.52zM88 53.87c-.547.075-1.098.115-1.65.12-4.49 0-7.22-3.67-9.1-7.51A19 19 0 0188 53.87zm-49.52-7H26.09a3.422 3.422 0 01-3.43-3.41v-8.21c2.53-.31 10.1-1.19 15.85-1.59l-.03 13.21zm2-13.34c2.712.026 5.399.523 7.94 1.47v3.8a2.12 2.12 0 002.12 2.12h6.81a1.15 1.15 0 011.08.73l2.14 5.26H40.51l-.03-13.38zM71.06 54a6.841 6.841 0 01-4 3.42.14.14 0 01-.14-.08l-3.44-8.49-.81-2-2.2-5.43-.23-.58a3.15 3.15 0 00-2.94-2h-6.76a.12.12 0 01-.12-.12V23.57a.12.12 0 01.12-.12h8.62a2.11 2.11 0 001.56-.66 11.78 11.78 0 017-2.93h11.41a3.48 3.48 0 012.45 1 3 3 0 01.84 2.1 2.891 2.891 0 01-.42 1.51 2.11 2.11 0 000 2.22 2.93 2.93 0 01.45 1.58 3 3 0 01-.54 1.73 2.19 2.19 0 000 2.45 3 3 0 01.51 1.68 2.92 2.92 0 01-.51 1.68 2.2 2.2 0 000 2.46 3 3 0 01.51 1.68 3 3 0 01-3.07 3h-6.83a2 2 0 00-1.67.88 2.1 2.1 0 00-.24 1.93c1.25 3.4 1.39 6.24.45 8.24zM14.41 33.31V46H9.68c1.14-4.69 2.71-9.82 4.73-12.69zm2.46 44.84a8.08 8.08 0 118-8.08 8 8 0 01-8 8.08zm10-8v-.09a10 10 0 00-20 0v.09H5.08a1 1 0 01-1-.89v-9.37a2.81 2.81 0 012.82-2.81h9.26c10.48 0 13.75 7.81 14.11 13.09l-3.4-.02zm50.72 8a8.08 8.08 0 118-8.08 8 8 0 01-8.01 8.08h.01zm12.82-8h-2.84v-.09a10 10 0 00-20 0v.07h-35.3a17 17 0 00-3.59-9.62c-2.89-3.56-7.22-5.44-12.52-5.44H7.85v-.22c.28-1.54.73-4 1.35-6.86h6.17a1 1 0 001-1V31.66c10.73-1.77 16.43-2.51 23.11-2.51a49.59 49.59 0 018.9.54v3.17a24.599 24.599 0 00-8.89-1.27h-.08c-7.07.44-17.81 1.77-17.91 1.78a1 1 0 00-.88 1v9.12a5.43 5.43 0 005.43 5.41h35.33l3.74 9.24a2.1 2.1 0 002 1.33c.238-.001.475-.042.7-.12a8.74 8.74 0 005.09-4.46c1.2-2.6 1.06-5.91-.44-9.83l-.92.36 1-.46h1.72l.27.21C76.46 49.83 79.84 56 86.38 56a15.26 15.26 0 002.79-.27 26.1 26.1 0 012.9 12.78 1.67 1.67 0 01-1.67 1.65l.01-.01z" stroke="currentColor" stroke-width="2" mask="url(#a)"/></svg> -->

<svg width="48" height="48" viewBox="0 0 48 48" fill="none" xmlns="http://www.w3.org/2000/svg">
<path d="M9.44409 31.3494C15.1327 31.3494 32.3655 31.3494 32.3655 31.3494M11.8658 28.3404H32.9164M45.1097 28.1224V23.8845C45.1161 23.3398 44.9321 22.81 44.5894 22.3866C44.2467 21.9633 43.7669 21.6729 43.2329 21.5657L36.7972 19.8402L32.6258 15.9655C30.2041 13.6709 28.4908 13.1805 26.3476 13.1805H17.7808" stroke="currentColor" stroke-linecap="round" stroke-linejoin="round"/>
<path d="M36.4521 34.9999C38.7091 34.9999 40.5387 33.1703 40.5387 30.9133C40.5387 28.6563 38.7091 26.8267 36.4521 26.8267C34.1951 26.8267 32.3655 28.6563 32.3655 30.9133C32.3655 33.1703 34.1951 34.9999 36.4521 34.9999Z" stroke="currentColor" stroke-linecap="round" stroke-linejoin="round"/>
<path d="M36.452 32.4269C37.288 32.4269 37.9656 31.7493 37.9656 30.9133C37.9656 30.0774 37.288 29.3998 36.452 29.3998C35.6161 29.3998 34.9385 30.0774 34.9385 30.9133C34.9385 31.7493 35.6161 32.4269 36.452 32.4269Z" stroke="currentColor" stroke-linecap="round" stroke-linejoin="round"/>
<path d="M40.9262 31.3493H44.8554C45.1766 31.3493 45.4846 31.2218 45.7117 30.9947C45.9387 30.7676 46.0663 30.4596 46.0663 30.1385V29.533C46.0663 29.2119 45.9387 28.9039 45.7117 28.6769C45.4846 28.4498 45.1766 28.3222 44.8554 28.3222H39.9455M45.1097 25.1013C44.1884 25.0692 43.3175 24.6729 42.688 23.9995C42.0397 23.1817 41.5509 22.2493 41.2471 21.2508M18.1501 15.9594H25.7301C27.2969 15.9523 28.8093 16.5334 29.968 17.588L33.4674 20.7725M33.4371 20.7725H19.1309M23.4658 28.3404V15.9594" stroke="currentColor" stroke-linecap="round" stroke-linejoin="round"/>
<path d="M5.81151 12.5449H2.17896V21.6263H5.81151" stroke="currentColor" stroke-miterlimit="10"/>
<path d="M5.81152 21.6263L8.23322 30.1023H8.83865C9.32036 30.1023 9.78233 29.9109 10.123 29.5703C10.4636 29.2297 10.6549 28.7677 10.6549 28.286V22.2317H16.1038C16.5855 22.2317 17.0474 22.0404 17.3881 21.6998C17.7287 21.3591 17.92 20.8972 17.92 20.4154V19.81L16.8466 14.03C16.7693 13.6132 16.5486 13.2365 16.2227 12.9652C15.8969 12.694 15.4864 12.5453 15.0624 12.5449H5.81152V21.6263Z" stroke="currentColor" stroke-miterlimit="10" stroke-linecap="square"/>
</svg>

<svg width="48" height="48" viewBox="0 0 48 48" fill="none" xmlns="http://www.w3.org/2000/svg"><path d="M9.444 31.35h22.921m-20.5-3.01h21.051m12.194-.218v-4.238a2.337 2.337 0 00-1.877-2.318l-6.436-1.726-4.171-3.874c-2.422-2.295-4.135-2.785-6.278-2.785H17.78M36.452 35a4.087 4.087 0 100-8.173 4.087 4.087 0 000 8.173z" stroke="currentColor" stroke-linecap="round" stroke-linejoin="round"/><path d="M36.452 32.427a1.514 1.514 0 100-3.027 1.514 1.514 0 000 3.027zM40.926 31.35h3.93a1.21 1.21 0 001.21-1.212v-.605a1.21 1.21 0 00-1.21-1.21h-4.91M45.11 25.1A3.481 3.481 0 0142.688 24a8.326 8.326 0 01-1.44-2.75M18.15 15.96h7.58a6.254 6.254 0 014.238 1.628l3.5 3.184m-.03 0H19.13m4.335 7.568V15.96" stroke="currentColor" stroke-linecap="round" stroke-linejoin="round"/><path d="M5.812 12.545H2.179v9.081h3.633" stroke="currentColor" stroke-miterlimit="10"/><path d="M5.812 21.626l2.421 8.476h.606a1.817 1.817 0 001.816-1.816v-6.054h5.449a1.816 1.816 0 001.816-1.817v-.605l-1.073-5.78a1.816 1.816 0 00-1.785-1.485h-9.25v9.081z" stroke="currentColor" stroke-miterlimit="10" stroke-linecap="square"/></svg>
